X:21
T:La sole (in G)
Z:Jack Campin, 2014
F:http://www.campin.me.uk/Music/YoupNannetteD.abc
S:p29, p1000218.jpg
M:2/4
L:1/8
Q:1/4=120
K:G
d|G>A Bc|d>^c d2|e>f ge|d>^c dB|\
  G>A Bc|d>^c d2|e>f ge|d2   z:|
d|B>G Bd|c>B  AB|c>B ce|d>c  Bd|\
  B>G Bd|c>B  AB|cd  ef|g2   z:|

